src/assets/bold/lm-image-caption-bold.svg

<svg width="24" height="24" viewBox="0 0 24 24" fill="none" xmlns="http://www.w3.org/2000/svg" fill="currentColor">
<path d="M9.5 20.25C9.91421 20.25 10.25 20.5858 10.25 21C10.25 21.4142 9.91421 21.75 9.5 21.75H3C2.58579 21.75 2.25 21.4142 2.25 21C2.25 20.5858 2.58579 20.25 3 20.25H9.5Z" fill="black"/>
<path d="M14.5 20.25C14.9142 20.25 15.25 20.5858 15.25 21C15.25 21.4142 14.9142 21.75 14.5 21.75H12C11.5858 21.75 11.25 21.4142 11.25 21C11.25 20.5858 11.5858 20.25 12 20.25H14.5Z" fill="black"/>
<path d="M19.5 20.25C19.9142 20.25 20.25 20.5858 20.25 21C20.25 21.4142 19.9142 21.75 19.5 21.75H17C16.5858 21.75 16.25 21.4142 16.25 21C16.25 20.5858 16.5858 20.25 17 20.25H19.5Z" fill="black"/>
<path d="M14.625 6.5C15.2463 6.5 15.75 7.00368 15.75 7.625C15.75 8.24632 15.2463 8.75 14.625 8.75C14.0037 8.75 13.5 8.24632 13.5 7.625C13.5 7.00368 14.0037 6.5 14.625 6.5Z" fill="black"/>
<path d="M20.25 2C21.0784 2 21.75 2.67157 21.75 3.5V17C21.75 17.8284 21.0784 18.5 20.25 18.5H3.75C2.92157 18.5 2.25 17.8284 2.25 17V3.5C2.25 2.67157 2.92157 2 3.75 2H20.25ZM14.8711 13.625L18.2461 17H20.25V15.2529L16.749 11.75L14.8711 13.625ZM3.75 14.374V17H16.125L8.625 9.49902L3.75 14.374ZM3.75 12.2529L7.56348 8.43945C7.70273 8.30012 7.86881 8.18871 8.05078 8.11328C8.23279 8.03788 8.42799 7.99902 8.625 7.99902C8.82201 7.99902 9.01721 8.03788 9.19922 8.11328C9.38119 8.18871 9.54727 8.29914 9.68652 8.43848L9.68555 8.43945L13.8105 12.5645L15.6885 10.6885C15.9697 10.4075 16.3514 10.25 16.749 10.25C17.1466 10.2501 17.5284 10.4084 17.8096 10.6895L20.25 13.1309V3.5H3.75V12.2529Z" fill="black"/>
</svg>

<svg xmlns="http://www.w3.org/2000/svg" width="24" height="24" fill="currentColor" viewBox="0 0 24 24">
  <path d="M9.5 20.25a.75.75 0 0 1 0 1.5H3a.75.75 0 0 1 0-1.5h6.5Zm5 0a.75.75 0 0 1 0 1.5H12a.75.75 0 0 1 0-1.5h2.5Zm5 0a.75.75 0 0 1 0 1.5H17a.75.75 0 0 1 0-1.5h2.5ZM14.625 6.5a1.125 1.125 0 1 1 0 2.25 1.125 1.125 0 0 1 0-2.25Z"/>
  <path d="M20.25 2a1.5 1.5 0 0 1 1.5 1.5V17a1.5 1.5 0 0 1-1.5 1.5H3.75a1.5 1.5 0 0 1-1.5-1.5V3.5A1.5 1.5 0 0 1 3.75 2h16.5Zm-5.379 11.625L18.246 17h2.004v-1.747l-3.501-3.503-1.878 1.875Zm-11.121.749V17h12.375l-7.5-7.501-4.875 4.875Zm0-2.121 3.813-3.814A1.506 1.506 0 0 1 8.625 8a1.5 1.5 0 0 1 1.062.44h-.001l4.124 4.126 1.878-1.877a1.5 1.5 0 0 1 2.122.002l2.44 2.44V3.5H3.75v8.753Z"/>
</svg>
